16x16/apps/pd.svg

<svg height="16" width="16" xmlns="http://www.w3.org/2000/svg"><rect fill="#4f4f4f" height="16" rx=".813" ry=".8" transform="matrix(0 -1 -1 0 0 0)" width="13" x="-14" y="-16"/><path d="m4 2h8v11h-8z" fill="#f4f4f7"/><path d="m4-15h7v14h-7z" fill="#f4f4f7" transform="rotate(90)"/><g fill="#17191e"><path d="m3.844 5h.844v5.571h-.844z"/><path d="m10.143-5.532h.857v2.532h-.857zm-5.143.844h.857v1.688h-.857z" transform="rotate(90)"/><path d="m5.743 5a1.899 1.929 0 0 0 -1.899 1.929 1.899 1.929 0 0 0 1.899 1.928 1.899 1.929 0 0 0 1.899-1.927 1.899 1.929 0 0 0 -1.9-1.93zm0 .823a1.055 1.071 0 0 1 1.055 1.071 1.055 1.071 0 0 1 -1.055 1.072 1.055 1.071 0 0 1 -1.055-1.072 1.055 1.071 0 0 1 1.055-1.071z"/><path d="m-11.798-9h.844v5.571h-.844z" transform="scale(-1)"/><path d="m-3.857 10.11h.857v1.69h-.857zm-5.143.844h.857v1.688h-.857z" transform="rotate(-90)"/><path d="m9.899 9a1.899 1.929 0 0 0 1.899-1.929 1.899 1.929 0 0 0 -1.9-1.928 1.899 1.929 0 0 0 -1.898 1.927 1.899 1.929 0 0 0 1.899 1.93zm0-.823a1.055 1.071 0 0 1 -1.055-1.071 1.055 1.071 0 0 1 1.055-1.072 1.055 1.071 0 0 1 1.055 1.072 1.055 1.071 0 0 1 -1.055 1.071z"/></g></svg>

<svg xmlns="http://www.w3.org/2000/svg" width="16" height="16" version="1"><rect style="fill:#4f4f4f" width="13" height="16" x="-14" y="-16" rx=".813" ry=".8" transform="matrix(0 -1 -1 0 0 0)"/><path style="fill:#f4f4f7" d="M4 2h8v11H4z"/><path style="fill:#f4f4f7" transform="rotate(90)" d="M4-15h7v14H4z"/><path style="fill:#17191e" d="M3.844 5h.844v5.571h-.844z"/><path style="fill:#17191e" transform="rotate(90)" d="M10.143-5.532H11V-3h-.857zM5-4.688h.857V-3H5z"/><path style="fill:#17191e" d="M5.743 5a1.899 1.929 0 0 0-1.899 1.929 1.899 1.929 0 0 0 1.899 1.928A1.899 1.929 0 0 0 7.642 6.93 1.899 1.929 0 0 0 5.742 5zm0 .823a1.055 1.071 0 0 1 1.055 1.071 1.055 1.071 0 0 1-1.055 1.072 1.055 1.071 0 0 1-1.055-1.072 1.055 1.071 0 0 1 1.055-1.071z"/><path style="fill:#17191e" transform="scale(-1)" d="M-11.798-9h.844v5.571h-.844z"/><path style="fill:#17191e" transform="rotate(-90)" d="M-3.857 10.11H-3V11.8h-.857zM-9 10.954h.857v1.688H-9z"/><path style="fill:#17191e" d="M9.899 9a1.899 1.929 0 0 0 1.899-1.929 1.899 1.929 0 0 0-1.9-1.928A1.899 1.929 0 0 0 8 7.07 1.899 1.929 0 0 0 9.899 9zm0-.823a1.055 1.071 0 0 1-1.055-1.071 1.055 1.071 0 0 1 1.055-1.072 1.055 1.071 0 0 1 1.055 1.072 1.055 1.071 0 0 1-1.055 1.071z"/></svg>
